packages/core/src/svgs/unibot.svg

<svg width="24" height="24" viewBox="0 0 24 24" fill="none" xmlns="http://www.w3.org/2000/svg">
<g clip-path="url(#clip0_31_20191)">
<path d="M0 0H24V24H0V0Z" fill="url(#paint0_linear_31_20191)"/>
<path d="M13.7143 17.9998L13.2857 19.0712L12.8572 16.2983L13.7143 17.9998Z" fill="#813F86"/>
<path d="M13.0715 15.8573L13.7143 18.0001L12.8572 16.2859L9.85718 12.4287L10.5 12.8573H10.7143L13.0715 15.8573Z" fill="#A25AA7"/>
<path d="M6.21429 11.7859L6 15.0002L8.57143 8.14307L6.21429 11.7859Z" fill="#AF2D9E"/>
<path d="M9.85714 8.35735L8.57143 8.14307L6 15.0002L9.85714 8.35735Z" fill="#AD3BBA"/>
<path d="M9.21429 14.1426L9.85714 8.35693L6 14.9998L9.21429 14.1426Z" fill="#AB319C"/>
<path d="M9.21436 13.9284L9.85721 8.357L18.8572 5.57129L11.1429 9.42843L9.85721 12.4284L12.8572 16.2856L9.21436 13.9284Z" fill="#9F40AA"/>
<path d="M10.7144 6.42843L11.1429 5.57129L11.3572 6.857L11.1429 7.49986L10.7144 7.71415V6.42843Z" fill="#891F79"/>
<path d="M12.2143 6.42843L11.1428 5.57129L11.3571 6.857H12.2143V6.42843Z" fill="#A55CAA"/>
<path d="M11.3571 6.85693L11.1428 7.49979L12.2143 7.28551L11.5714 6.85693H11.3571Z" fill="#9C3FA7"/>
<path d="M12.2144 6.85728H11.5715L12.2144 7.28585H12.8572L12.2144 6.42871V6.85728Z" fill="#D392D7"/>
<path d="M9.85714 18.4286L6 15L6.85714 16.2857L9.85714 18.4286Z" fill="#81308D"/>
<path d="M8.14286 14.3569L6 14.9998L9.85714 18.4284H10.5L8.14286 14.3569Z" fill="#5C146A"/>
<path d="M9.21425 13.9287L8.14282 14.3573L10.5 18.4287L12 17.7859L12.8571 16.2859L9.21425 13.9287Z" fill="#5F186B"/>
<path d="M13.2857 19.0714L12.8572 16.2856L12 17.7856L9.85718 18.4285L10.9286 19.2856L13.2857 19.0714Z" fill="#290C1E"/>
<path d="M9.85725 8.357L8.57153 8.14272L18.8572 5.57129L9.85725 8.357Z" fill="#601252"/>
<path d="M10.5 12.8573L9.85718 12.4287L10.5 10.9287L10.7143 12.8573H10.5Z" fill="#A057A5"/>
<path d="M10.5 11.7859V10.9287L11.3571 11.143V12.0001L11.1429 12.2144L10.5 11.7859Z" fill="#B642C2"/>
<path d="M13.0715 9.21436L11.5715 10.0715L15.0001 12.4286L13.0715 9.21436Z" fill="#A0358A"/>
<path d="M14.1429 12.4288L11.3572 11.1431V12.0002L14.1429 12.4288Z" fill="#631154"/>
<path d="M14.1429 12.4284L10.5 10.9284L11.5714 10.0713L15 12.4284H14.1429Z" fill="#8D2E9A"/>
<path d="M11.3571 12L11.1428 12.2143L13.0714 13.0714L14.1428 12.4286L11.3571 12Z" fill="#4D0F59"/>
<path d="M13.0715 13.0716L14.143 12.4287V13.9287L13.0715 13.0716Z" fill="#892697"/>
<path d="M15 12.4287H14.1428V13.2859H15V12.4287Z" fill="#491E4D"/>
<path d="M14.1428 13.9285V13.2856H15L15.6428 13.9285H14.1428Z" fill="#591E45"/>
<path d="M15.6429 13.9287L15 13.2859V12.4287H15.8571L16.0714 13.0716L15.6429 13.9287Z" fill="#9F57A4"/>
<path d="M15.8572 12.4286H15.0001L13.0715 9.21429L13.7144 9L15.643 11.5714L15.8572 12.4286Z" fill="#AB62B0"/>
<path d="M18.8571 5.57129L10.5 10.9284L18.8571 5.99986V5.57129Z" fill="#A057A5"/>
<path d="M11.1429 9.21415L18.8571 5.57129L10.5 10.9284L11.1429 9.21415Z" fill="#6A3070"/>
</g>
<defs>
<linearGradient id="paint0_linear_31_20191" x1="4.46571" y1="4.16143" x2="29.2071" y2="32.58" gradientUnits="userSpaceOnUse">
<stop stop-color="#1A1E21"/>
<stop offset="1" stop-color="#06060A"/>
</linearGradient>
<clipPath id="clip0_31_20191">
<rect width="24" height="24" fill="white"/>
</clipPath>
</defs>
</svg>

<svg xmlns="http://www.w3.org/2000/svg" width="24" height="24" fill="none" viewBox="0 0 24 24"><g clip-path="url(#a)"><path fill="url(#b)" d="M0 0h24v24H0z"/><path fill="#813F86" d="m13.714 18-.428 1.071-.429-2.773z"/><path fill="#A25AA7" d="M13.072 15.857 13.714 18l-.857-1.714-3-3.857.643.428h.214z"/><path fill="#AF2D9E" d="M6.214 11.786 6 15l2.571-6.857z"/><path fill="#AD3BBA" d="m9.857 8.357-1.286-.214L6 15z"/><path fill="#AB319C" d="m9.214 14.143.643-5.786L6 15z"/><path fill="#9F40AA" d="m9.214 13.928.643-5.571 9-2.786-7.714 3.857-1.286 3 3 3.858z"/><path fill="#891F79" d="m10.714 6.428.429-.857.214 1.286-.214.643-.429.214z"/><path fill="#A55CAA" d="m12.214 6.428-1.071-.857.214 1.286h.857z"/><path fill="#9C3FA7" d="m11.357 6.857-.214.643 1.071-.214-.643-.43z"/><path fill="#D392D7" d="M12.214 6.857h-.643l.643.429h.643l-.643-.857z"/><path fill="#81308D" d="M9.857 18.429 6 15l.857 1.286z"/><path fill="#5C146A" d="M8.143 14.357 6 15l3.857 3.428h.643z"/><path fill="#5F186B" d="m9.214 13.929-1.071.428L10.5 18.43l1.5-.643.857-1.5z"/><path fill="#290C1E" d="m13.286 19.071-.429-2.785-.857 1.5-2.143.642 1.072.858z"/><path fill="#601252" d="m9.857 8.357-1.285-.214L18.857 5.57z"/><path fill="#A057A5" d="m10.5 12.857-.643-.428.643-1.5.214 1.928z"/><path fill="#B642C2" d="M10.5 11.786v-.857l.857.214V12l-.214.214z"/><path fill="#A0358A" d="m13.072 9.214-1.5.857L15 12.43z"/><path fill="#631154" d="m14.143 12.429-2.786-1.286V12z"/><path fill="#8D2E9A" d="m14.143 12.428-3.643-1.5 1.071-.857L15 12.428z"/><path fill="#4D0F59" d="m11.357 12-.214.214 1.928.857 1.072-.642z"/><path fill="#892697" d="m13.072 13.072 1.071-.643v1.5z"/><path fill="#491E4D" d="M15 12.429h-.857v.857H15z"/><path fill="#591E45" d="M14.143 13.929v-.643H15l.643.643z"/><path fill="#9F57A4" d="M15.643 13.929 15 13.286v-.857h.857l.214.643z"/><path fill="#AB62B0" d="M15.857 12.429H15l-1.928-3.215.642-.214 1.929 2.571z"/><path fill="#A057A5" d="M18.857 5.571 10.5 10.928 18.857 6z"/><path fill="#6A3070" d="m11.143 9.214 7.714-3.643-8.357 5.357z"/></g><defs><linearGradient id="b" x1="4.466" x2="29.207" y1="4.161" y2="32.58" gradientUnits="userSpaceOnUse"><stop stop-color="#1A1E21"/><stop offset="1" stop-color="#06060A"/></linearGradient><clipPath id="a"><path fill="#fff" d="M0 0h24v24H0z"/></clipPath></defs></svg>
